X: 38146
T: Sporting Nell
R: reel
M: 4/4
K: Dmixolydian
A2 AG AddB|cBcG E ~G3|A2 AG AddB|cAGE ED D2|
A2 AG AddB|cBAG EFGE|A2 AG AddB|cAGE ED D2||
A ~d3 dcAB|cdef gedc|A ~d3 dcAB|cAGE ED D2|
A (~d3 d3)B|cdef gedf|eaag effd|cAGE ED D2||

